X:474
T: Wahl des Brutigams (184), S. 402
N: T0362
O: Luxemburg
S: Singendes Volk, Esch-Alzette, 1937 posth.]
N: Junglinster, fff Schwester des Verfassers, 1904
R: Hochzeits-, Ehestandslied]
M: 2/4
L: 1/16
K: C
 | G2G2A2GG | E2E2C4 |
c4B2A2 | G6E2 | G2G2F2D2 | C4z2
G2 | A2G2A2GG | A2F2G4 |
c2c2d2c2 | B2A2A4 |
c4B2A2 | G6E2 | G2G2F2D2 | C4z4

@@@ Tune index: 8528
